multimedia/whatsapp.svg

<svg width="60" height="59" viewBox="0 0 60 59" fill="none" xmlns="http://www.w3.org/2000/svg">
<circle cx="29.6846" cy="29.6123" r="29.3584" fill="#25D366"/>
<path d="M41.0698 18.0822C44.1349 21.1473 46.0323 25.1611 46.0323 29.5399C46.0323 38.4433 38.5885 45.7411 29.6121 45.7411C26.9119 45.7411 24.2847 45.0113 21.8764 43.7707L13.3379 45.9601L15.6002 37.5675C14.2136 35.1592 13.4109 32.386 13.4109 29.4669C13.4109 20.5635 20.7087 13.2656 29.6121 13.2656C33.9909 13.2656 38.0777 15.0171 41.0698 18.0822ZM29.6121 42.9679C37.056 42.9679 43.2591 36.9107 43.2591 29.5399C43.2591 25.8909 41.7266 22.5339 39.1723 19.9797C36.6181 17.4254 33.2611 16.0388 29.6851 16.0388C22.2413 16.0388 16.1841 22.096 16.1841 29.4669C16.1841 32.0211 16.9138 34.5024 18.2275 36.6918L18.5924 37.2026L17.2058 42.1652L22.3143 40.7786L22.7521 41.0705C24.8685 42.3111 27.2038 42.9679 29.6121 42.9679ZM37.056 32.8969C37.4208 33.1158 37.7128 33.1888 37.7857 33.4077C37.9317 33.5537 37.9317 34.3565 37.5668 35.3052C37.2019 36.2539 35.5964 37.1296 34.8666 37.2026C33.553 37.4216 32.5313 37.3486 29.977 36.1809C25.8902 34.4294 23.263 30.3426 23.0441 30.1237C22.8251 29.8318 21.4385 27.9343 21.4385 25.8909C21.4385 23.9205 22.4602 22.9718 22.8251 22.5339C23.19 22.096 23.6279 22.0231 23.9198 22.0231C24.1387 22.0231 24.4306 22.0231 24.6496 22.0231C24.9415 22.0231 25.2334 21.9501 25.5983 22.7529C25.8902 23.5556 26.766 25.526 26.8389 25.745C26.9119 25.9639 26.9849 26.1828 26.8389 26.4748C26.1092 28.0073 25.2334 27.9343 25.6713 28.6641C27.2768 31.3643 28.8094 32.3131 31.2177 33.4807C31.5826 33.6996 31.8015 33.6267 32.0934 33.4077C32.3123 33.1158 33.1151 32.1671 33.334 31.8022C33.626 31.3643 33.9179 31.4373 34.2828 31.5833C34.6477 31.7292 36.6181 32.6779 37.056 32.8969Z" fill="white"/>
</svg>

<svg xmlns="http://www.w3.org/2000/svg" width="60" height="59" fill="none"><circle cx="29.685" cy="29.612" r="29.358" fill="#25D366"/><path fill="#fff" d="M41.07 18.082c3.065 3.065 4.962 7.08 4.962 11.458 0 8.903-7.443 16.201-16.42 16.201-2.7 0-5.327-.73-7.736-1.97l-8.538 2.19 2.262-8.393a16.2 16.2 0 0 1-2.19-8.101c0-8.903 7.299-16.201 16.202-16.201 4.379 0 8.466 1.751 11.458 4.816M29.612 42.968c7.444 0 13.647-6.057 13.647-13.428 0-3.65-1.532-7.006-4.087-9.56s-5.91-3.941-9.487-3.941c-7.444 0-13.5 6.057-13.5 13.428 0 2.554.729 5.035 2.043 7.225l.364.51-1.386 4.963 5.108-1.386.438.291c2.117 1.241 4.452 1.898 6.86 1.898m7.444-10.071c.365.219.657.292.73.51.146.147.146.95-.22 1.898-.364.949-1.97 1.825-2.7 1.898-1.313.219-2.335.146-4.889-1.022-4.087-1.752-6.714-5.838-6.933-6.057-.219-.292-1.605-2.19-1.605-4.233 0-1.97 1.021-2.92 1.386-3.357s.803-.51 1.095-.51h.73c.292 0 .583-.074.948.729.292.803 1.168 2.773 1.24 2.992.074.219.147.438 0 .73-.729 1.532-1.605 1.46-1.167 2.19 1.606 2.7 3.138 3.648 5.547 4.816.365.219.584.146.875-.073.22-.292 1.022-1.24 1.241-1.606.292-.438.584-.365.949-.219s2.335 1.095 2.773 1.314"/></svg>
